**kern	**kern
*part1	*part1
*staff2	*staff1
*I"Piano	*
*clefG2	*clefG2
*k[b-]	*k[b-]
=1	=1
*^	*
4A	[2C	12r
.	.	(12fL 12cc
.	.	12cJ)
4Bn	.	12r
.	.	(12a-XL 12ff
.	.	12fJ)
=	=	=
4c	2C]	12r
.	.	(12fL 12g
.	.	12ffJ)
!	!	!LO:TX:b:i:t=cresc.
4C	.	12r
.	.	(12eL 12g
.	.	12eeJ)
*v	*v	*
=	=
4A	12r
.	12gL
.	12b-J 12ee
4AA	12r
.	12fL
.	12aJ 12dd
=	=
4A	12r
.	12eL
.	12gJ 12cc#X
4AA	12r
.	12dL
.	12fJ 12b-X
=	=
4A	12r
.	12c#XL
.	12eJ 12a
4C#X	12r
.	12AL
.	12eJ 12g
=	=
2D	12r
.	12AL
.	12dJ
.	12fL
.	12c
.	12AJ
=	=
2D 2F#X	12r
!	!LO:TX:b:i:t=decresc.
.	12cnL
.	12dJ
.	12aL
.	12d
.	12cJ
=	=
*-	*-
!!!system-decoration: {(s1,s2)}
